img/svg/main-menu-icons/setup-ico.svg

<svg width="26" height="26" viewBox="0 0 26 26" fill="none" xmlns="http://www.w3.org/2000/svg">
<g>
   <path d="M13 7.10938C9.75188 7.10938 7.10938 9.75193 7.10938 13C7.10938 16.2481 9.75188 18.8906 13 18.8906C13.6067 18.8906 14.2053 18.7986 14.7792 18.6169C15.314 18.4477 15.6102 17.8769 15.441 17.3422C15.2717 16.8074 14.7009 16.5111 14.1662 16.6803C13.7908 16.7991 13.3985 16.8594 13 16.8594C10.872 16.8594 9.14062 15.1281 9.14062 13C9.14062 10.8719 10.872 9.14062 13 9.14062C15.128 9.14062 16.8594 10.8719 16.8594 13C16.8594 13.3698 16.8074 13.7353 16.7047 14.086C16.5473 14.6244 16.8561 15.1884 17.3945 15.3459C17.9329 15.5034 18.4969 15.1946 18.6544 14.6562C18.8112 14.1201 18.8906 13.5629 18.8906 13C18.8906 9.75193 16.2481 7.10938 13 7.10938Z" fill="#E0E0E0"/>
   <path d="M22.9531 9.44536H22.4417C22.3071 9.44536 22.1852 9.36061 22.1323 9.23274L22.1233 9.2108C22.0686 9.07908 22.0948 8.93247 22.1899 8.83731L22.5516 8.47564C23.7396 7.28767 23.7396 5.35468 22.5516 4.1667L21.8334 3.44855C21.2579 2.87305 20.4928 2.55612 19.679 2.55612C18.865 2.55612 18.0999 2.87305 17.5245 3.44855L17.1628 3.81017C17.0676 3.90538 16.9209 3.93148 16.7898 3.877L16.7706 3.86907C16.6394 3.81489 16.5547 3.69296 16.5547 3.55845V3.04688C16.5547 1.36683 15.1879 0 13.5079 0H12.4922C10.8122 0 9.44536 1.36683 9.44536 3.04688V3.55845C9.44536 3.69296 9.36066 3.81489 9.23061 3.86857L9.21075 3.87679C9.07918 3.93154 8.93242 3.90538 8.83731 3.81022L8.47564 3.44855C7.90019 2.87305 7.13502 2.55612 6.32115 2.55612C5.50728 2.55612 4.74216 2.87305 4.16665 3.44855L3.4485 4.1666C2.26053 5.35463 2.26053 7.28757 3.44855 8.47559L3.81017 8.83721C3.90533 8.93242 3.93143 9.07903 3.87522 9.21451L3.86907 9.22934C3.81494 9.36051 3.69291 9.44526 3.55839 9.44526H3.04688C1.36683 9.44526 0 10.8121 0 12.4921V13.5078C0 15.1878 1.36683 16.5546 3.04688 16.5546H3.55834C3.69291 16.5546 3.81484 16.6394 3.8677 16.7673L3.87674 16.7892C3.93143 16.9209 3.90528 17.0675 3.81012 17.1627L3.4485 17.5244C2.873 18.0999 2.55607 18.865 2.55607 19.6789C2.55607 20.4927 2.873 21.2578 3.44845 21.8333L4.1666 22.5514C4.74211 23.1269 5.50728 23.4439 6.3211 23.4439C7.13502 23.4439 7.90014 23.1269 8.47559 22.5514L8.83721 22.1898C8.93232 22.0946 9.07913 22.0685 9.2103 22.123L9.22944 22.1309C9.36061 22.1851 9.44531 22.307 9.44531 22.4416V22.9531C9.44531 24.6332 10.8121 26 12.4922 26H13.5078C15.1879 26 16.5547 24.6332 16.5547 22.9531V22.4416C16.5547 22.307 16.6394 22.1851 16.7694 22.1314L16.7893 22.1232C16.921 22.0686 17.0676 22.0947 17.1627 22.1898L17.5244 22.5514C18.0999 23.1269 18.865 23.4439 19.6789 23.4439C20.4928 23.4439 21.2579 23.1269 21.8334 22.5514L22.5515 21.8333C23.127 21.2578 23.4439 20.4927 23.4439 19.6789C23.4439 18.865 23.127 18.0999 22.5515 17.5244L22.1899 17.1627C22.0947 17.0676 22.0686 16.921 22.1233 16.7892L22.1309 16.7707C22.1851 16.6395 22.3071 16.5547 22.4416 16.5547H22.9531C24.6332 16.5547 26 15.1879 26 13.5079V12.4922C26 10.8122 24.6332 9.44536 22.9531 9.44536ZM23.9688 13.5078C23.9688 14.0678 23.5131 14.5234 22.9531 14.5234H22.4416C21.4816 14.5234 20.6227 15.1011 20.2535 15.9952L20.2469 16.0112C19.8763 16.9049 20.075 17.9206 20.7535 18.599L21.1152 18.9607C21.307 19.1525 21.4126 19.4076 21.4126 19.6789C21.4126 19.9501 21.307 20.2051 21.1151 20.397L20.3971 21.1151C20.2051 21.3069 19.9501 21.4126 19.6789 21.4126C19.4075 21.4126 19.1525 21.307 18.9607 21.1151L18.599 20.7534C17.9201 20.0747 16.9039 19.8761 16.0096 20.2476L15.9953 20.2535C15.1012 20.6227 14.5234 21.4815 14.5234 22.4416V22.9531C14.5234 23.5131 14.0678 23.9688 13.5078 23.9688H12.4922C11.9322 23.9688 11.4766 23.5131 11.4766 22.9531V22.4416C11.4766 21.4815 10.8988 20.6227 10.0037 20.253L9.98994 20.2473C9.69084 20.1231 9.37818 20.0627 9.06892 20.0627C8.45391 20.0627 7.85266 20.3018 7.40096 20.7535L7.0393 21.1152C6.84745 21.307 6.59247 21.4126 6.32115 21.4126C6.04987 21.4126 5.7948 21.3069 5.603 21.1151L4.88485 20.397C4.693 20.2051 4.58737 19.9501 4.58737 19.6789C4.58737 19.4076 4.693 19.1525 4.88485 18.9607L5.24652 18.599C5.925 17.9206 6.12376 16.9049 5.75311 16.0112L5.74651 15.9952C5.37723 15.1011 4.51836 14.5234 3.55839 14.5234H3.04688C2.48686 14.5234 2.03125 14.0678 2.03125 13.5078V12.4922C2.03125 11.9322 2.48686 11.4766 3.04688 11.4766H3.55839C4.51841 11.4766 5.37728 10.8989 5.74788 10.0015L5.7526 9.98999C6.12391 9.09604 5.92526 8.0798 5.24646 7.40096L4.88485 7.03935C4.48881 6.6433 4.48881 5.99899 4.88485 5.603L5.60295 4.88485C5.79485 4.69305 6.04987 4.58737 6.32115 4.58737C6.59247 4.58737 6.8475 4.693 7.0393 4.88485L7.40101 5.24657C8.07991 5.92531 9.09619 6.12396 9.9904 5.75245L10.0047 5.74651C10.8988 5.37733 11.4766 4.51846 11.4766 3.55845V3.04688C11.4766 2.48686 11.9322 2.03125 12.4922 2.03125H13.5078C14.0678 2.03125 14.5234 2.48686 14.5234 3.04688V3.55845C14.5234 4.51846 15.1012 5.37733 15.9963 5.74691L16.0101 5.7526C16.9039 6.12381 17.9201 5.92521 18.599 5.24646L18.9607 4.88475C19.1526 4.69295 19.4075 4.58732 19.6789 4.58732C19.9501 4.58732 20.2052 4.693 20.397 4.8848L21.1151 5.60295C21.5112 5.99894 21.5112 6.64325 21.1152 7.03925L20.7535 7.40096C20.0747 8.0798 19.8761 9.09599 20.2459 9.98623L20.2535 10.0048C20.6228 10.8989 21.4816 11.4766 22.4416 11.4766H22.9531C23.5131 11.4766 23.9688 11.9322 23.9688 12.4922V13.5078Z" fill="#E0E0E0"/>
</g>

</svg>

<svg width="26" height="26" fill="none" xmlns="http://www.w3.org/2000/svg"><g fill="#E0E0E0"><path d="M13 7.11A5.897 5.897 0 007.11 13a5.897 5.897 0 007.67 5.617 1.016 1.016 0 10-.614-1.937A3.864 3.864 0 019.14 13 3.864 3.864 0 0113 9.14a3.864 3.864 0 013.705 4.946 1.016 1.016 0 001.95.57A5.897 5.897 0 0013 7.11z"/><path d="M22.953 9.445h-.511a.338.338 0 01-.31-.212l-.009-.022a.34.34 0 01.067-.374l.362-.361a3.05 3.05 0 000-4.31l-.719-.717a3.027 3.027 0 00-2.154-.893c-.814 0-1.58.317-2.154.893l-.362.361a.34.34 0 01-.373.067l-.02-.008a.34.34 0 01-.215-.31v-.512A3.05 3.05 0 0013.508 0h-1.016a3.05 3.05 0 00-3.047 3.047v.511a.339.339 0 01-.214.31l-.02.009a.34.34 0 01-.374-.067l-.361-.361a3.027 3.027 0 00-2.155-.893c-.814 0-1.579.317-2.154.893l-.718.718a3.05 3.05 0 000 4.309l.361.361a.342.342 0 01.065.378l-.006.014a.34.34 0 01-.31.216h-.512A3.05 3.05 0 000 12.492v1.016a3.05 3.05 0 003.047 3.047h.511c.135 0 .257.084.31.212l.009.022a.34.34 0 01-.067.374l-.361.361a3.027 3.027 0 00-.893 2.155c0 .814.317 1.579.892 2.154l.719.718c.575.576 1.34.893 2.154.893.814 0 1.58-.317 2.155-.893l.361-.361a.34.34 0 01.373-.067l.02.008a.34.34 0 01.215.31v.512A3.05 3.05 0 0012.492 26h1.016a3.05 3.05 0 003.047-3.047v-.511c0-.135.084-.257.214-.31l.02-.009a.34.34 0 01.374.067l.361.361a3.027 3.027 0 002.155.893c.814 0 1.579-.317 2.154-.893l.719-.718c.575-.575.892-1.34.892-2.154 0-.814-.317-1.58-.892-2.155l-.362-.361a.34.34 0 01-.067-.374l.008-.018a.34.34 0 01.31-.216h.512A3.05 3.05 0 0026 13.508v-1.016a3.05 3.05 0 00-3.047-3.047zm1.016 4.063c0 .56-.456 1.015-1.016 1.015h-.511c-.96 0-1.82.578-2.189 1.472l-.006.016c-.37.894-.172 1.91.506 2.588l.362.362c.192.192.298.447.298.718 0 .271-.106.526-.298.718l-.718.718a1.01 1.01 0 01-.718.298 1.01 1.01 0 01-.718-.298l-.362-.362a2.365 2.365 0 00-2.59-.505l-.014.005a2.364 2.364 0 00-1.472 2.189v.511c0 .56-.455 1.016-1.015 1.016h-1.016c-.56 0-1.015-.456-1.015-1.016v-.511c0-.96-.578-1.82-1.473-2.189l-.014-.006a2.4 2.4 0 00-.921-.184c-.615 0-1.216.239-1.668.69l-.362.362a1.009 1.009 0 01-.718.298 1.01 1.01 0 01-.718-.298l-.718-.718a1.009 1.009 0 01-.298-.718c0-.271.106-.526.298-.718l.362-.362a2.365 2.365 0 00.506-2.588l-.006-.016a2.364 2.364 0 00-2.189-1.472h-.511c-.56 0-1.016-.455-1.016-1.015v-1.016c0-.56.456-1.015 1.016-1.015h.511c.96 0 1.82-.578 2.19-1.476l.005-.011a2.365 2.365 0 00-.507-2.589l-.361-.362a1.017 1.017 0 010-1.436l.718-.718a1.01 1.01 0 01.718-.298c.271 0 .527.106.718.298l.362.362a2.365 2.365 0 002.59.505l.014-.005a2.364 2.364 0 001.472-2.189v-.511c0-.56.455-1.016 1.015-1.016h1.016c.56 0 1.015.456 1.015 1.016v.511c0 .96.578 1.82 1.473 2.189l.014.006c.894.37 1.91.172 2.589-.507l.362-.361a1.01 1.01 0 01.718-.298c.271 0 .526.106.718.298l.718.718c.396.396.396 1.04 0 1.436l-.361.362a2.364 2.364 0 00-.508 2.585l.008.019a2.364 2.364 0 002.188 1.472h.511c.56 0 1.016.455 1.016 1.015v1.016z"/></g></svg>
